img/logo/mail.svg

<svg width="40" height="40" viewBox="0 0 40 40" fill="none" xmlns="http://www.w3.org/2000/svg">
<rect x="0.5" y="0.5" width="39" height="39" rx="19.5" stroke="#EEEEEE"/>
<path fill-rule="evenodd" clip-rule="evenodd" d="M13.0983 14.0483C12.6835 14.1599 12.3251 14.4619 12.1367 14.8586C12.0389 15.0645 12.0215 15.1362 12.0084 15.3858C11.9857 15.8198 12.0949 16.1379 12.372 16.4454C12.5263 16.6166 19.2369 21.0897 19.4876 21.1885C19.755 21.2938 20.2485 21.2939 20.5157 21.1886C20.7135 21.1107 27.3394 16.7148 27.5616 16.5141C28.0243 16.096 28.1359 15.3805 27.8317 14.7819C27.7261 14.574 27.4483 14.2938 27.2345 14.1795C26.8745 13.987 27.3485 13.9987 19.9875 14.0009C14.2177 14.0027 13.2431 14.0094 13.0983 14.0483ZM12.0084 21.1214L12.0168 24.8904L12.1334 25.1344C12.2675 25.4154 12.5176 25.6847 12.7693 25.8193C13.1291 26.0116 12.6579 25.9999 20.0019 25.9999C27.3459 25.9999 26.8747 26.0116 27.2345 25.8193C27.4483 25.705 27.7261 25.4248 27.8317 25.2169C28.0085 24.8688 28.0018 25.0345 28.0022 21.0437L28.0025 17.3533L24.5715 19.6403C20.9609 22.047 20.9296 22.0661 20.4571 22.1529C20.2194 22.1966 19.7843 22.1966 19.5467 22.1529C19.0742 22.0661 19.0429 22.047 15.4316 19.6399L12 17.3525L12.0084 21.1214Z" fill="black"/>
</svg>

<svg xmlns="http://www.w3.org/2000/svg" width="40" height="40" fill="none" viewBox="0 0 40 40"><rect width="39" height="39" x=".5" y=".5" stroke="#eee" rx="19.5"/><path fill="#000" fill-rule="evenodd" d="M13.098 14.048a1.52 1.52 0 0 0-.961.81c-.098.207-.116.278-.129.528-.022.434.087.752.364 1.06.154.17 6.865 4.644 7.116 4.743.267.105.76.105 1.028 0 .198-.078 6.823-4.474 7.046-4.675.462-.418.574-1.133.27-1.732a1.7 1.7 0 0 0-.598-.602c-.36-.193.114-.181-7.247-.18-5.77.003-6.744.01-6.889.048m-1.09 7.073.009 3.77.116.243c.135.281.385.55.636.685.36.193-.111.18 7.233.18s6.873.013 7.233-.18c.213-.114.491-.394.597-.602.177-.348.17-.182.17-4.173v-3.69l-3.43 2.286c-3.611 2.407-3.642 2.426-4.115 2.513a3.2 3.2 0 0 1-.91 0c-.473-.087-.504-.106-4.115-2.513L12 17.352z" clip-rule="evenodd"/></svg>
